X: 18236
T: Humours Of Kinvara, The
R: reel
M: 4/4
K: Edorian
dc|:BE ~E2 BEdE|BE ~E2 BcdB|cA ~A2 cAeA|1 (3Bcd efe2dc:|2 (3Bcd efe2de||
|:~f3e dcBA|effe d2de|~f3e fgaf|1 ecAc ~e2de:|2 ecAc e2dc|B4||

